!!!OTL: IM MAIEN IM MAIEN ISTS LIEBLICH
!!!ARE: Europa, Mitteleuropa, Deutschland
!!!SCT: E0394
!!!YEM: Copyright 1995, estate of Helmut Schaffrath.
**kern
*ICvox
*Ivox
*M6/8
*k[b-e-a-]
*E-:
{8a-
=1
8a-
8ee-
8g
8g
8b-
8e-
=2
8g
16g
16b-
16a-
16cc
4b-}
{8B-
=3
8e-
8e-
8g
8g
8e-
16a-
16g
=4
2f
8r}
{8b-
=5
8.b-
16a-
8g
8f
8d}
{8b-
=6
8.b-
16a-
8g
8f
8d}
{8B-
=7
4e-
8e-
4g
8g
=8
4.b-
4ee-}
{16g
16a-
=9
4b-
16e-
16f
4g
8f
=10
2e-
8r}
==
!!!AGN: Liebes - Lied, Jahreszeiten, Fruehling
!!!ONB: ESAC (Essen Associative Code) Database: ERK1
!!!AMT: compound duple
!!!AIN: vox
!!!EED: Helmut Schaffrath
!!!EEV: 1.0
*-
